X: 27
T:Father's #3
S:Angus Cameron
R:Waltz
N:from The Scottish Music List, Vol2 No 93
Z:Bernard Chenery
M:3/4
L:1/4
K:D
D F A|A2 B|A d e|f2 a/a/|a g f/f/|f e d|B d B|A3|
D F A|A2 B|A d e|f2 a/a/|a g f/f/|f e d|d f e|d3:|
f d f|e c e|d3/2 c/ B|A F A|f d f|e c e|d3/2 c/ d|e2 A/A/|
f d f|e c e|d3/2 c/ B|A F A|B3/2 B/ B|c2 c|A f e|d3:|

